X: 1836
T: Sûzidilârâ Seyir
C: Erol Bingöl
O: Turkey
F: http://compmusic.upf.edu/node/140
N: suzidilara--seyir--sofyan--1--erol_bingol
N: makam= suzidilara
N: form= seyir
N: usul= sofyan = 4/4
M: 4/4
L: 1/16
K: C ^9/8f   
Q: 1/4=60
%%MIDI tuningsystem comma53
G2A2 G2F2 G4 A2B2  | d2c2 B2A2 G8  | \
w:   |   | 
A2B2 c2d2 c4 B4  | c2d2 e2d2 e8  | 
w:   |   | 
z4 d2e2 =f2g2 f2e2  | e2=f2 e2d2 e3d c4  | \
w:   |   | 
d2=f2 e2d2 d2c2 c2B2  | 
w:   | 
c12 z4  | d4 e2f2 g4 f4  | g2f2 b2a2 g8  | \
w:   |   |   | 
g4 =f2e2 f4 e2d2  | d2e2 d2^c2 _7/8B2A2 B4  | 
w:   |   | 
A2G2 F2G2 F4 G4  | A2B2 A2B2 c8  | c3B A2B2 A4 B4  | \
w:   |   |   | 
G12 z4  | |


